svg/user/user_4_line.svg

<?xml version="1.0" encoding="UTF-8"?>
<svg width="24px" height="24px" viewBox="0 0 24 24" version="1.1" xmlns="http://www.w3.org/2000/svg" xmlns:xlink="http://www.w3.org/1999/xlink">
    <title>user_4_line</title>
    <g id="Icon" stroke="none" stroke-width="1" fill="none" fill-rule="evenodd">
        <g id="User" transform="translate(-240.000000, 0.000000)">
            <g id="user_4_line" transform="translate(240.000000, 0.000000)">
                <path d="M24,0 L24,24 L0,24 L0,0 L24,0 Z M12.5935,23.2578 L12.5819,23.2595 L12.5109,23.295 L12.4919,23.2987 L12.4767,23.295 L12.4057,23.2595 C12.3958,23.2564 12.387,23.259 12.3821,23.2649 L12.378,23.2758 L12.3609,23.7031 L12.3659,23.7235 L12.3769,23.7357 L12.4805,23.8097 L12.4953,23.8136 L12.5071,23.8097 L12.6107,23.7357 L12.6233,23.7197 L12.6267,23.7031 L12.6096,23.2758 C12.6076,23.2657 12.601,23.2593 12.5935,23.2578 Z M12.8584,23.1453 L12.8445,23.1473 L12.6598,23.2397 L12.6499,23.2499 L12.6472,23.2611 L12.6651,23.6906 L12.6699,23.7034 L12.6784,23.7105 L12.8793,23.8032 C12.8914,23.8069 12.9022,23.803 12.9078,23.7952 L12.9118,23.7812 L12.8777,23.1665 C12.8753,23.1546 12.8674,23.147 12.8584,23.1453 Z M12.143,23.1473 C12.1332,23.1424 12.1222,23.1453 12.1156,23.1526 L12.1099,23.1665 L12.0758,23.7812 C12.0751,23.7927 12.0828,23.8019 12.0926,23.8046 L12.1083,23.8032 L12.3092,23.7105 L12.3186,23.7024 L12.3225,23.6906 L12.3404,23.2611 L12.3372,23.2485 L12.3278,23.2397 L12.143,23.1473 Z" id="MingCute" fill-rule="nonzero"></path>
                <path d="M12,2 C17.5228,2 22,6.47715 22,12 C22,14.4016 21.1534,16.6055 19.7424,18.3294 L19.7617,18.3521 L19.6304,18.4638 C17.7961,20.627 15.0584,22 12,22 C9.05084786,22 6.39986973,20.7233202 4.56956356,18.6925212 L4.3696,18.4638 L4.23825,18.3521 L4.25763,18.3294 L4.25763,18.3294 C2.8466,16.6055 2,14.4016 2,12 C2,6.47715 6.47715,2 12,2 Z M12,17 C10.1403,17 8.45892,17.5921 7.20656,18.4055 C8.54249,19.4068 10.202,20 12,20 C13.798,20 15.4575,19.4068 16.7934,18.4055 C15.5411,17.5921 13.8597,17 12,17 Z M12,4 C7.58172,4 4,7.58172 4,12 C4,13.8847 4.65173,15.6172 5.74211,16.9843 C7.36303,15.8211 9.57491,15 12,15 C14.4251,15 16.637,15.8211 18.2579,16.9843 C19.3483,15.6172 20,13.8847 20,12 C20,7.58172 16.4183,4 12,4 Z M12,6 C14.2091,6 16,7.79086 16,10 C16,12.2091 14.2091,14 12,14 C9.79086,14 8,12.2091 8,10 C8,7.79086 9.79086,6 12,6 Z M12,8 C10.8954,8 10,8.89543 10,10 C10,11.1046 10.8954,12 12,12 C13.1046,12 14,11.1046 14,10 C14,8.89543 13.1046,8 12,8 Z" id="形状" fill="#09244B"></path>
            </g>
        </g>
    </g>
</svg>

<svg xmlns="http://www.w3.org/2000/svg" width="24" height="24"><g fill="none" fill-rule="evenodd"><path d="M24 0v24H0V0h24ZM12.594 23.258l-.012.002-.071.035-.02.004-.014-.004-.071-.036c-.01-.003-.019 0-.024.006l-.004.01-.017.428.005.02.01.013.104.074.015.004.012-.004.104-.074.012-.016.004-.017-.017-.427c-.002-.01-.009-.017-.016-.018Zm.264-.113-.014.002-.184.093-.01.01-.003.011.018.43.005.012.008.008.201.092c.012.004.023 0 .029-.008l.004-.014-.034-.614c-.003-.012-.01-.02-.02-.022Zm-.715.002a.023.023 0 0 0-.027.006l-.006.014-.034.614c0 .012.007.02.017.024l.015-.002.201-.093.01-.008.003-.011.018-.43-.003-.012-.01-.01-.184-.092Z"/><path fill="#09244B" d="M12 2c5.523 0 10 4.477 10 10a9.959 9.959 0 0 1-2.258 6.33l.02.022-.132.112A9.978 9.978 0 0 1 12 22c-2.95 0-5.6-1.277-7.43-3.307l-.2-.23-.132-.11.02-.024A9.958 9.958 0 0 1 2 12C2 6.477 6.477 2 12 2Zm0 15c-1.86 0-3.541.592-4.793 1.406A7.965 7.965 0 0 0 12 20a7.965 7.965 0 0 0 4.793-1.594A8.897 8.897 0 0 0 12 17Zm0-13a8 8 0 0 0-6.258 12.984C7.363 15.821 9.575 15 12 15s4.637.821 6.258 1.984A8 8 0 0 0 12 4Zm0 2a4 4 0 1 1 0 8 4 4 0 0 1 0-8Zm0 2a2 2 0 1 0 0 4 2 2 0 0 0 0-4Z"/></g></svg>
